apps/documenteditor/main/resources/img/toolbar/2.5x/btn-small-wrap-topandbottom.svg

<svg width="20" height="20" viewBox="0 0 20 20" fill="none" xmlns="http://www.w3.org/2000/svg">
<path fill-rule="evenodd" clip-rule="evenodd" d="M2 2H18V3H2V2ZM2 16H18V17H2V16ZM14.9869 5.16815C14.9869 5.16815 14.7453 7.89381 14.1011 8.67257C13.7032 9.15363 13.0322 9.1064 12.5829 9.07478C12.4867 9.06801 12.4007 9.06195 12.3297 9.06195C12.7323 9.1593 13.9401 9.74337 13.9401 11.3982C13.9401 13.2478 13.2154 15 12.4907 15C11.766 15 10.4777 12.6637 10.4777 10.4248C10.4777 10.2396 10.4453 10.1327 10.4216 10.0545C10.4101 10.0163 10.4006 9.98498 10.3979 9.95469C10.4049 10.122 10.4482 11.4956 9.99454 11.4956C9.5329 11.4956 9.58589 10.0735 9.59152 9.94702C9.58794 9.98664 9.56198 10.0402 9.53194 10.1022C9.48616 10.1967 9.4309 10.3107 9.4309 10.4248C9.4309 12.6637 8.14256 15 7.41787 15C6.7737 15 5.96849 13.2478 5.96849 11.3009C5.96849 9.80381 6.95695 9.26274 7.38391 9.02902C7.42892 9.00439 7.46768 8.98317 7.49839 8.96461C7.25683 9.06195 6.3711 9.25664 5.88797 8.67257C5.32432 7.89381 5.00224 5.16815 5.00224 5.16815C5.00224 5.15459 5.00185 5.13774 5.00139 5.11811C4.99532 4.85574 4.97776 4.09735 5.72693 4.09735C8.22308 4.09735 9.67246 7.8938 9.67246 8.38053C9.67246 8.38053 9.67246 7.60177 10.0751 7.60177C10.4777 7.60177 10.4777 8.38053 10.4777 8.38053C10.4777 7.8938 11.9271 4 14.3427 4C15.0486 4 15.0119 4.67337 14.9921 5.03621C14.9893 5.08724 14.9869 5.13214 14.9869 5.16815Z" fill="black"/>
</svg>

<svg xmlns="http://www.w3.org/2000/svg" width="20" height="20" fill="none"><path fill="#000" d="M18 17H2v-1h16v1ZM14.343 4c.805 0 .644.876.644 1.168 0 0-.241 2.726-.885 3.505-.483.584-1.37.389-1.772.389.403.097 1.61.682 1.61 2.336 0 1.85-.725 3.602-1.45 3.602-.725-.001-2.013-2.337-2.013-4.575 0-.292-.08-.39-.08-.487.002.03.076 1.557-.403 1.557-.478 0-.404-1.527-.402-1.557 0 .098-.161.292-.161.487C9.43 12.664 8.143 15 7.418 15c-.644 0-1.45-1.752-1.45-3.7 0-1.653 1.207-2.14 1.53-2.335-.242.097-1.127.292-1.61-.292-.564-.779-.886-3.505-.886-3.505 0-.195-.08-1.07.725-1.07 2.496 0 3.946 3.796 3.946 4.283 0 0 0-.78.402-.78.403 0 .402.78.402.78 0-.487 1.45-4.381 3.866-4.381ZM18 3H2V2h16v1Z"/></svg>
